packages/tokens/icons/leaf/size32Px.svg

<svg viewBox="0 0 32 32" fill="none" xmlns="http://www.w3.org/2000/svg" width="1em" height="1em"><g clip-path="url(#clip0_2_60901)"><path d="M25.6262 21.0497C28.052 18.6239 28.5459 14.4037 25.1058 10.9636C20.456 6.31385 9.5335 5.31914 6.1137 5.11881C5.54381 5.08542 5.08547 5.54376 5.11885 6.11365C5.31918 9.53345 6.31389 20.456 10.9636 25.1057C14.4038 28.5459 18.6239 28.052 21.0498 25.6262" stroke="currentColor" stroke-linecap="round"/><path d="M10.3744 10.3747L26.8736 26.8739M10.3744 16.2671C11.3285 15.6498 14.4319 14.432 16.8562 16.8563C14.4319 14.432 15.6497 11.3285 16.267 10.3745M13.91 19.8027C14.864 19.1854 17.9674 17.9676 20.3918 20.392C17.9674 17.9676 19.1852 14.8642 19.8026 13.9102" stroke="currentColor" stroke-linecap="round"/></g><defs><clipPath id="clip0_2_60901"><rect width="32" height="32" fill="currentColor"/></clipPath></defs></svg>

<svg xmlns="http://www.w3.org/2000/svg" fill="none" viewBox="0 0 32 32" width="1em" height="1em"><g stroke="currentColor" stroke-linecap="round" clip-path="url(#iconsLeafSize32Px__a)"><path d="M25.626 21.05c2.426-2.426 2.92-6.646-.52-10.086-4.65-4.65-15.573-5.645-18.992-5.845a.933.933 0 0 0-.995.995c.2 3.42 1.195 14.342 5.845 18.992 3.44 3.44 7.66 2.946 10.086.52"/><path d="m10.374 10.375 16.5 16.499m-16.5-10.607c.954-.617 4.058-1.835 6.482.59-2.424-2.425-1.206-5.528-.589-6.482m-2.357 9.428c.954-.618 4.057-1.835 6.482.589-2.425-2.424-1.207-5.528-.59-6.482"/></g><defs><clipPath id="iconsLeafSize32Px__a"><path fill="currentColor" d="M0 0h32v32H0z"/></clipPath></defs></svg>
